X: 41662
T: Upperchurch, The
R: polka
M: 2/4
K: Gmajor
|:A/B/A/|GD GA|B2 B/c/B/A/|GD GA|B3 d/e/|
ed BG|A2- A/A/B/d/|ed B/c/A|1 G2- G/:|2 G3||
|:B/d/|gg ge|ff fd|ed/e/ fe|d2- d/d/^c/d/|
ed BG|A2- A/A/B/d/|1 ed BA|G3:|2 ed B/c/A|G/A/G/F G/||

